X:153
T:Brighthelmstone Hot Bath
M:6/8
L:1/8
B:Thompson's Compleat Collection of 200 Favourite Country Dances, vol. 3 (London, 1773)
Z:Transcribed and edited by Flynn Titford-Mock, 2007
Z:abc's:AK/Fiddler's Companion
K:D
dfa gec | dfa gec | dfd Bge | ced cBA | dfa gec | dfa gec | dfd Bge | cBc d3 :|
|: FGA AB=c | B^cd cde | dAd eAe | faf {f}"tr"e3 | FGA AB=c | B^cd cde | dag fed | ABc d3 :|

